!!!OTL: ES GING EIN JAEGER JAGEN
!!!ARE: Europa, Mitteleuropa, Deutschland, Herzogtum Berg
!!!SCT: Z0238
!!!YEM: Copyright 1995, estate of Helmut Schaffrath.
**kern
*ICvox
*Ivox
*M3/8
*k[f#c#]
*D:
=1
{8a
8f#
8d
=2
8c#
8b
16a
16g
=3
8f#
8d
8r}
=4
{8f#
8f#
8f#
=5
8a
8g
16e
16f#
=6
4d
8r}
=7
{16a
16a
8f#
8d
=8
8c#
8b
16a
16g
=9
8f#
8d
8r}
=10
{8f#
8f#
8f#
=11
8a
8g
16e
16f#
=12
4d
8r}
=13
{8e
8c#
8A
=14
8d
8f#
16a
16f#
=15
8f#
8e
8r}
=16
{8e
8c#
8A
=17
8d
8f#
16a
16f#
=18
4e
8r}
=19
{8a
8f#
8d
=20
8c#
8b
16a
16g
=21
8f#
8d
8r}
=22
{8f#
8f#
8f#
=23
8a
8g
16e
16f#
=24
4d
8r}
==
!!!AGN: Jaeger - Lied
!!!ONB: ESAC (Essen Associative Code) Database: ZUCCAL
!!!AMT: simple triple
!!!AIN: vox
!!!EED: Helmut Schaffrath
!!!EEV: 1.0
*-
